X:1058
T:Have you heard of the Tax.
M:6/8
L:1/8
Q:3/8=104
Z:Jack Campin * www.campin.me.uk * 2009
K:D
A|ddd  dcd|efg  a2B   |dfd dcd|efg a2
a|ac'a gee|fdd  edc   |dcB fed|cAA A2
A|gfg  efg|aaa  a2A   |dcd Bcd|cee eaf|
  ffe  dfd|cAa Ha2g/f/|bed cAd|edc d2|]

